Sources/FrostedUI/Resources/Icons.xcassets/starFilled20.imageset/star-filled-20.svg

<svg width="20" height="20" viewBox="0 0 20 20" fill="none" xmlns="http://www.w3.org/2000/svg" data-fui-icon="true">
  <path
    d="M8.13318 1.57452C8.95443 0.142129 11.0452 0.14231 11.8666 1.57452L11.9447 1.72198L13.7943 5.57257L18.056 6.13116C19.8479 6.36631 20.5838 8.58083 19.2552 9.83331L16.1459 12.763L16.9271 16.9505C17.2615 18.7451 15.3636 20.0922 13.7826 19.2405L10.0004 17.2015L6.21814 19.2405C4.63708 20.0928 2.7391 18.7456 3.07361 16.9505L3.85388 12.763L0.744507 9.83331C-0.584137 8.58066 0.152419 6.36583 1.9447 6.13116L6.20447 5.57257L8.05603 1.72198L8.13318 1.57452ZM5.50623 17.9193C5.44574 17.9519 5.38339 17.973 5.32166 17.9857C5.35242 17.9794 5.38379 17.9724 5.41443 17.9612C5.44519 17.9501 5.47596 17.9365 5.50623 17.9202L9.68787 15.6663L9.68689 15.6653L5.50623 17.9193ZM10.3129 15.6663L14.4945 17.9202C14.5232 17.9356 14.5523 17.9485 14.5814 17.9593C14.552 17.9484 14.5225 17.9348 14.4935 17.9193L10.3129 15.6653V15.6663ZM15.4515 17.2259C15.4639 17.2923 15.4659 17.3567 15.4594 17.4183C15.4626 17.388 15.4644 17.3571 15.4633 17.3255C15.4621 17.2929 15.4588 17.2596 15.4525 17.2259L14.5873 12.5843H14.5863L15.4515 17.2259ZM14.7806 11.9896C14.7603 12.0088 14.7415 12.0298 14.724 12.0511C14.7414 12.0299 14.7604 12.0097 14.7806 11.9905L18.2269 8.74152H18.226L14.7806 11.9896ZM7.23865 6.80499C7.24919 6.79408 7.26109 6.78442 7.27087 6.77277L7.27673 6.76495C7.26507 6.77928 7.25142 6.79176 7.23865 6.80499ZM12.7289 6.77277C12.7347 6.77965 12.7414 6.78567 12.7474 6.7923C12.7392 6.78328 12.7308 6.77445 12.723 6.76495L12.7289 6.77277Z"
    fill="currentColor"
  />
</svg>

<svg xmlns="http://www.w3.org/2000/svg" width="20" height="20" fill="none" data-fui-icon="true" viewBox="0 0 20 20"><path fill="currentColor" d="M8.133 1.575c.821-1.433 2.912-1.433 3.734 0l.078.147 1.85 3.85 4.261.56c1.792.234 2.528 2.449 1.2 3.701l-3.11 2.93.781 4.188c.335 1.794-1.563 3.141-3.144 2.29L10 17.2l-3.782 2.04c-1.58.852-3.479-.495-3.144-2.29l.78-4.188-3.11-2.93c-1.328-1.252-.592-3.467 1.2-3.702l4.26-.558 1.852-3.851zM5.506 17.919v.001l4.182-2.254h-.001zm4.807-2.253 4.182 2.254h-.002zm5.138 1.56h.002l-.866-4.642zm-.67-5.236 3.446-3.248h-.001zM7.239 6.805q.016-.014.032-.032l.006-.008zm5.49-.032.018.02-.024-.028z"/></svg>
